icons/svg/poi_colored/surveillance.svg

<?xml version="1.0" encoding="UTF-8" standalone="no"?>
<!-- Created with Inkscape (http://www.inkscape.org/) -->

<svg
   xmlns:dc="http://purl.org/dc/elements/1.1/"
   xmlns:cc="http://creativecommons.org/ns#"
   xmlns:rdf="http://www.w3.org/1999/02/22-rdf-syntax-ns#"
   xmlns:svg="http://www.w3.org/2000/svg"
   xmlns="http://www.w3.org/2000/svg"
   xmlns:sodipodi="http://sodipodi.sourceforge.net/DTD/sodipodi-0.dtd"
   xmlns:inkscape="http://www.inkscape.org/namespaces/inkscape"
   version="1.0"
   width="580"
   height="580"
   id="svg2"
   sodipodi:version="0.32"
   inkscape:version="0.91 r"
   sodipodi:docname="surveillance.svg"
   inkscape:output_extension="org.inkscape.output.svg.inkscape">
  <metadata
     id="metadata2975">
    <rdf:RDF>
      <cc:Work
         rdf:about="">
        <dc:format>image/svg+xml</dc:format>
        <dc:type
           rdf:resource="http://purl.org/dc/dcmitype/StillImage" />
        <cc:license
           rdf:resource="http://web.resource.org/cc/PublicDomain" />
        <dc:language>en</dc:language>
        <dc:title></dc:title>
      </cc:Work>
    </rdf:RDF>
  </metadata>
  <sodipodi:namedview
     inkscape:window-height="995"
     inkscape:window-width="1280"
     inkscape:pageshadow="2"
     inkscape:pageopacity="0.0"
     guidetolerance="10.0"
     gridtolerance="10.0"
     objecttolerance="10.0"
     borderopacity="1.0"
     bordercolor="#666666"
     pagecolor="#ffffff"
     id="base"
     inkscape:zoom="0.32586207"
     inkscape:cx="287.38255"
     inkscape:cy="298.74571"
     inkscape:window-x="0"
     inkscape:window-y="0"
     inkscape:current-layer="svg2"
     showgrid="false"
     inkscape:window-maximized="1" />
  <defs
     id="defs4">
    <inkscape:perspective
       sodipodi:type="inkscape:persp3d"
       inkscape:vp_x="0 : 290 : 1"
       inkscape:vp_y="0 : 1000 : 0"
       inkscape:vp_z="580 : 290 : 1"
       inkscape:persp3d-origin="290 : 193.33333 : 1"
       id="perspective2441" />
    <inkscape:perspective
       id="perspective3452"
       inkscape:persp3d-origin="30 : 20 : 1"
       inkscape:vp_z="60 : 30 : 1"
       inkscape:vp_y="0 : 1000 : 0"
       inkscape:vp_x="0 : 30 : 1"
       sodipodi:type="inkscape:persp3d" />
    <symbol
       viewBox="244.5 110 489 219.9"
       id="symbol-university">
      <path
         id="path4460"
         d="M79,43l57,119c0,0,21-96,104-96s124,106,124,106l43-133l82-17L0,17L79,43z" />
      <path
         id="path4462"
         d="M94,176l-21,39"
         stroke-width="20"
         stroke="#000000"
         fill="none" />
      <path
         id="path4464"
         d="M300,19c0,10.5-22.6,19-50.5,19S199,29.5,199,19s22.6-19,50.5-19S300,8.5,300,19z" />
      <path
         id="path4466"
         d="M112,216l-16-38L64,88c0,0-9-8-4-35s16-24,16-24"
         stroke-width="20"
         stroke="#000000"
         ill="none" />
    </symbol>
    <inkscape:perspective
       id="perspective4471"
       inkscape:persp3d-origin="372.04724 : 350.78739 : 1"
       inkscape:vp_z="744.09448 : 526.18109 : 1"
       inkscape:vp_y="0 : 1000 : 0"
       inkscape:vp_x="0 : 526.18109 : 1"
       sodipodi:type="inkscape:persp3d" />
    <inkscape:perspective
       id="perspective4668"
       inkscape:persp3d-origin="6 : 4 : 1"
       inkscape:vp_z="12 : 6 : 1"
       inkscape:vp_y="0 : 1000 : 0"
       inkscape:vp_x="0 : 6 : 1"
       sodipodi:type="inkscape:persp3d" />
  </defs>
  <g
     id="g1327">
    <path
       d="M 66.275,1.768 C 24.94,1.768 1.704,23.139 1.704,66.804 L 1.704,516.927 C 1.704,557.771 22.599,579.156 63.896,579.156 L 515.92,579.156 C 557.227,579.156 578.149,558.841 578.149,516.927 L 578.149,66.804 C 578.149,24.203 557.227,1.768 514.628,1.768 C 514.624,1.768 66.133,1.625 66.275,1.768 z "
       style="fill:#111;stroke:#eee;stroke-width:3.40799999"
       id="path1329" />
  </g>
  <line
     style="fill:none;stroke:#ffffff;stroke-width:32.13555527;stroke-linecap:round;stroke-linejoin:round;stroke-miterlimit:10;stroke-dasharray:none;stroke-opacity:1"
     stroke-miterlimit="10"
     x1="361.7355"
     y1="78.050476"
     x2="486.37576"
     y2="88.810555"
     id="line3" />
  <path
     inkscape:connector-curvature="0"
     d="m 331.46343,432.81701 c -0.95049,8.72479 -2.90527,17.19851 -5.79261,25.29563 46.38579,-36.36079 112.2746,-88.03707 131.35617,-103.19112 19.03674,-15.37826 29.7253,-31.65319 34.43291,-53.29033 L 331.46343,432.81701 Z"
     id="path5-8"
     style="fill:#ffffff;fill-opacity:1" />
  <path
     inkscape:connector-curvature="0"
     d="m 424.89769,139.96851 c 1.95479,0.28695 3.91853,0.72634 5.88228,1.10294 l 0,-55.200261 c 0,-4.949742 -10.28415,-11.407549 -15.24285,-11.407549 -4.95868,0 -8.9669,4.017162 -8.9669,8.966904 l 0,52.815066 c 4.15167,0.269 14.50757,3.09523 18.32747,3.7229 z"
     id="path7"
     sodipodi:nodetypes="ccssscc"
     style="fill:#ffffff;fill-opacity:1" />
  <path
     inkscape:connector-curvature="0"
     d="m 416.09307,155.28234 c -5.87332,-0.95944 -12.04255,-1.45262 -18.31939,-1.45262 -39.36471,0 -73.08026,18.7229 -75.12471,19.90652 L 110.13333,317.20671 c -0.28693,0.19727 -0.50214,0.45731 -0.76217,0.68148 -44.081314,30.14674 -43.55226,92.20668 -43.5433,93.00473 0.09859,4.94076 4.106847,8.74273 9.128307,8.7786 4.949742,-0.0898 8.724804,-4.16962 8.805504,-9.11934 0.591812,-35.64344 15.127169,-88.91582 88.924789,-95.26439 100.27689,-7.37976 137.2564,91.20238 138.86147,95.66789 1.30918,3.6585 4.76144,5.94506 8.43786,5.94506 1.0043,0 2.02652,-0.17932 3.02185,-0.52903 0.0808,-0.0268 0.13451,-0.0986 0.20624,-0.13452 0.86978,-0.33176 1.70372,-0.76218 2.44796,-1.37193 L 510.88222,262.51755 c 2.08031,-1.69473 3.29091,-4.23237 3.29091,-6.92244 0,-51.63144 -50.80653,-93.56069 -98.08006,-100.31277 z m -87.86669,255.95132 c -0.0627,0.14347 -0.0539,0.31385 -0.11659,0.45731 0.0627,-0.14346 0.0627,-0.31384 0.11659,-0.45731 z"
     id="path9-2"
     style="fill:#ffffff;fill-opacity:1" />
  <path
     inkscape:connector-curvature="0"
     d="m 294.66326,417.02628 c -1.23744,-3.44329 -31.1331,-84.19027 -111.37793,-84.19027 -3.03977,0 -6.16922,0.11659 -9.06554,0.32281 -44.22476,3.81094 -68.41747,26.88278 -72.04907,68.61476 -0.0269,0.35868 -0.0538,0.70839 -0.0808,1.06706 -0.20623,2.61834 -0.35868,5.27254 -0.39455,8.01642 -0.0269,1.98168 -0.30486,3.89163 -0.72632,5.73882 l 0,0 c 6.94038,50.68093 50.73475,94.48427 103.68433,100.77006 3.75713,0.44834 7.58599,0.67252 11.36106,0.67252 44.90625,0 83.78675,-31.51867 94.87881,-72.79333 0.60078,-2.17896 1.33607,-6.29477 2.10723,-11.39693 -8.34819,-2.25966 -15.32445,-8.42889 -18.33733,-16.82192 z m -89.84838,28.66721 c -22.41727,-2.69009 -40.35107,-23.31396 -40.35107,-45.73122 0,-22.41726 17.9338,-37.66101 40.35107,-34.0832 22.41726,2.69902 40.35106,23.3229 40.35106,45.74017 0,22.41726 -17.9338,37.661 -40.35106,34.07425 z"
     id="path11"
     style="fill:#ffffff;fill-opacity:1" />
</svg>

<svg width="580" height="580" viewBox="0 0 580 580" fill="none" xmlns="http://www.w3.org/2000/svg">
<g clip-path="url(#clip0)">
<path d="M66.275 1.76815C24.94 1.76815 1.70398 23.1391 1.70398 66.8041V516.927C1.70398 557.771 22.599 579.156 63.896 579.156H515.92C557.227 579.156 578.149 558.841 578.149 516.927V66.8041C578.149 24.2031 557.227 1.76815 514.628 1.76815C514.624 1.76815 66.133 1.62515 66.275 1.76815Z" fill="#111111" stroke="#EEEEEE" stroke-width="3.408"/>
<path d="M361.735 78.0503L486.376 88.8104" stroke="white" stroke-width="32.1356" stroke-miterlimit="10" stroke-linecap="round" stroke-linejoin="round"/>
<path d="M331.463 432.817C330.513 441.542 328.558 450.016 325.671 458.113C372.057 421.752 437.945 370.076 457.027 354.922C476.064 339.543 486.752 323.268 491.46 301.631L331.463 432.817Z" fill="white"/>
<path d="M424.898 139.969C426.852 140.256 428.816 140.695 430.78 141.072V85.8714C430.78 80.9217 420.496 74.4639 415.537 74.4639C410.578 74.4639 406.57 78.481 406.57 83.4308V136.246C410.722 136.515 421.078 139.341 424.898 139.969Z" fill="white"/>
<path d="M416.093 155.282C410.22 154.323 404.051 153.83 397.774 153.83C358.409 153.83 324.693 172.552 322.649 173.736L110.133 317.207C109.846 317.404 109.631 317.664 109.371 317.888C65.2899 348.035 65.8189 410.095 65.8279 410.893C65.9265 415.834 69.9347 419.636 74.9562 419.671C79.906 419.582 83.681 415.502 83.7617 410.552C84.3535 374.909 98.8889 321.636 172.687 315.288C272.963 307.908 309.943 406.49 311.548 410.956C312.857 414.614 316.309 416.901 319.986 416.901C320.99 416.901 322.012 416.721 323.008 416.372C323.088 416.345 323.142 416.273 323.214 416.237C324.084 415.905 324.918 415.475 325.662 414.865L510.882 262.517C512.963 260.823 514.173 258.285 514.173 255.595C514.173 203.964 463.367 162.034 416.093 155.282V155.282ZM328.226 411.234C328.164 411.377 328.173 411.547 328.11 411.691C328.173 411.547 328.173 411.377 328.226 411.234Z" fill="white"/>
<path d="M294.663 417.026C293.426 413.583 263.53 332.836 183.285 332.836C180.246 332.836 177.116 332.953 174.22 333.159C129.995 336.97 105.802 360.042 102.171 401.774C102.144 402.132 102.117 402.482 102.09 402.841C101.884 405.459 101.731 408.113 101.695 410.857C101.668 412.839 101.39 414.749 100.969 416.596C107.909 467.277 151.704 511.08 204.653 517.366C208.41 517.814 212.239 518.038 216.014 518.038C260.921 518.038 299.801 486.52 310.893 445.245C311.494 443.066 312.229 438.95 313 433.848C304.652 431.588 297.676 425.419 294.663 417.026H294.663ZM204.815 445.693C182.398 443.003 164.464 422.379 164.464 399.962C164.464 377.545 182.398 362.301 204.815 365.879C227.232 368.578 245.166 389.202 245.166 411.619C245.166 434.036 227.232 449.28 204.815 445.693Z" fill="white"/>
</g>
<defs>
<clipPath id="clip0">
<path d="M0 0H580V580H0V0Z" fill="white"/>
</clipPath>
</defs>
</svg>
